X:72
T:Flogging
M:C
L:1/8
K:G Major
A|BGG2 BGdG|BGG2 Bdgd|BGG2 BdcB|AGFG ABc:|!
d|gfgd BGBd|gfge fgaf|gfgd BGBd|AGFG ABcd|!
gfgd BGBd|gfge fgaf|bgaf gedB|AGFG ABc|]!
A|Bdgd Bdgd|Bdgd BGGB|Ac=fc Acfc|Ac=fc AFFA|!
Bdgd Bdgd|Bdef gfga|bgaf gedB|AGFG ABc|]!
